UK-cool.svg

<svg height="128pt" viewBox="0 0 128 128" width="128pt" xmlns="http://www.w3.org/2000/svg"><path d="m99.76 0h.16c7.01 3.43 12.78 9.99 13.01 18.1-.04.7-.1 2.1-.13 2.8-.16 3.28-.93 6.48-1.55 9.69-.36 2.47-.09 5.43 2.28 6.84 2.98 1.22 6.86.76 8.84-2.01 2.21-2.99 3.83-6.75 3.82-10.5.52 1.16.93 2.36 1.33 3.56-1.26 1.33-.86 3.44.48 4.54v4.64c-.13 2.71-.57 5.41-1.55 7.94-1.25 2.75-2.59 5.45-4.11 8.06-.93 1.46-1.98 2.86-3.14 4.15-.61-4.18-1.21-8.45-3.15-12.26-1.11 2.23-1.74 5.21-4.39 6.13-2.37 1.26-5.9-.02-6.47-2.75-.88-4.05-.61-8.54-3.03-12.12-1.92-3.17-5.28-5.03-8.69-6.18.7 3.68 1.82 7.58.46 11.26-1.37 3.86-5.7 6.86-9.83 5.9-3.19-.93-3.37-4.75-4.32-7.36-4.72 4.54-6.31 11.07-6.98 17.36-10.24-10.36-11.89-28.01-3.51-39.97.55-.74 1.64-2.22 2.18-2.96l-.51 2.95c-.63 4.37-.55 9.56 3.32 12.5 3 1.24 6.51-.16 8.14-2.89 1.54-1.86 1.35-4.68-.13-6.51-.36-1.04-.69-2.08-1.01-3.12-1.19-5.22.97-10.7 4.99-14.11-.44 3.47-.45 7.34 1.85 10.21 2.75 3.84 9.33 4.41 12.11.3 3.09-4.23 1.62-9.86-.47-14.19z" fill="#f4900c"/><g fill="#eee"><path d="m3.89 22.11c3.4-3.48 8.33-4.74 13.08-4.32 9.66 6.87 19.42 13.63 29.13 20.44.01-6.81 0-13.62 0-20.43h7.53c-.02 11.94.02 23.88-.02 35.81-17.87.05-35.74-.01-53.61.03v-7.53c6.51 0 13.03-.01 19.54 0-6.51-4.56-12.99-9.15-19.54-13.64v-1.63c.14-.7.42-2.11.56-2.81l.94.67c7.36 5.25 14.84 10.35 22.2 15.61 4.02 3.39 9.67 1.17 14.43 1.78-11.4-8.02-22.82-15.99-34.24-23.98z"/><path d="m74.37 17.81c2.3-.01 4.61-.01 6.91-.02.32 1.04.65 2.08 1.01 3.12-.17 2.16-.36 4.37.13 6.51-1.63 2.73-5.14 4.13-8.14 2.89.15-4.16.09-8.33.09-12.5z"/><path d="m112.93 18.1c.92.01 2.77.02 3.7.03-.88 1.35-2.4 2.14-3.83 2.77.03-.7.09-2.1.13-2.8z"/><path d="m123.87 21.88c.83.97 1.62 1.97 2.32 3.04.01 3.75-1.61 7.51-3.82 10.5-1.98 2.77-5.86 3.23-8.84 2.01-2.37-1.41-2.64-4.37-2.28-6.84 4.32-2.74 8.4-5.82 12.62-8.71z"/><path d="m126.45 45.6c.38.19 1.16.57 1.55.75v7.26c-1.89.01-3.77.03-5.66.05 1.52-2.61 2.86-5.31 4.11-8.06z"/><path d="m0 74.38c17.87 0 35.74-.02 53.61.01.04 11.93 0 23.87.02 35.81-2.51 0-5.02 0-7.53 0 0-6.81.01-13.62 0-20.43-9.72 6.81-19.47 13.57-29.14 20.45-2.06.01-4.13-.08-6.16-.39 11.69-8.39 23.56-16.52 35.31-24.82 0-.78 0-2.33-.01-3.1-3.01.24-6.51-.9-9.08 1.16-10.95 7.7-21.94 15.36-32.9 23.06-2.18-2.4-3.64-5.39-4.12-8.6v-1.9c6.48-4.65 13.05-9.15 19.57-13.75-6.53.03-13.05 0-19.57.02z"/><path d="m74.39 74.39c17.87-.04 35.74.01 53.61-.03v7.53c-6.52 0-13.04.01-19.56-.01 6.51 4.58 13.04 9.13 19.56 13.69v2.85c-.41.25-1.24.75-1.65 1-7.12-5.56-14.77-10.41-22.06-15.74-4.02-3.39-9.67-1.15-14.42-1.78 11.39 8.03 22.82 16 34.24 23.99-3.41 3.48-8.33 4.75-13.08 4.31-9.67-6.86-19.41-13.62-29.13-20.42-.01 6.81 0 13.61 0 20.42-2.51 0-5.02 0-7.53 0 .02-11.94-.02-23.88.02-35.81z"/></g><path d="m16.97 17.79c9.71.02 19.42 0 29.13.01 0 6.81.01 13.62 0 20.43-9.71-6.81-19.47-13.57-29.13-20.44z" fill="#00247d"/><path d="m0 32.47c6.55 4.49 13.03 9.08 19.54 13.64-6.51-.01-13.03 0-19.54 0z" fill="#00247d"/><path d="m126.45 45.6c.98-2.53 1.42-5.23 1.55-7.94v8.69c-.39-.18-1.17-.56-1.55-.75z" fill="#00247d"/><path d="m0 81.9c6.52-.02 13.04.01 19.57-.02-6.52 4.6-13.09 9.1-19.57 13.75z" fill="#00247d"/><path d="m108.44 81.88c6.52.02 13.04.01 19.56.01v13.68c-6.52-4.56-13.05-9.11-19.56-13.69z" fill="#00247d"/><path d="m16.96 110.22c9.67-6.88 19.42-13.64 29.14-20.45.01 6.81 0 13.62 0 20.43-9.71.01-19.43-.02-29.14.02z" fill="#00247d"/><path d="m81.9 89.78c9.72 6.8 19.46 13.56 29.13 20.42-9.71-.01-19.42 0-29.13 0 0-6.81-.01-13.61 0-20.42z" fill="#00247d"/><path d="m53.63 17.8c5.22.01 10.44-.02 15.66.02-8.38 11.96-6.73 29.61 3.51 39.97 5.95 6.3 14.53 9.93 23.17 9.97 8.67-.01 17.25-3.67 23.23-9.95 1.16-1.29 2.21-2.69 3.14-4.15 1.89-.02 3.77-.04 5.66-.05v20.75c-17.87.04-35.74-.01-53.61.03-.04 11.93 0 23.87-.02 35.81-6.91 0-13.83 0-20.74 0-.02-11.94.02-23.88-.02-35.81-17.87-.03-35.74-.01-53.61-.01v-20.74c17.87-.04 35.74.02 53.61-.03.04-11.93 0-23.87.02-35.81z" fill="#cf1b2b"/><path d="m70.96 17.81h3.41c0 4.17.06 8.34-.09 12.5-3.87-2.94-3.95-8.13-3.32-12.5z" fill="#cf1b2b"/><path d="m116.63 18.13c2.72.52 5.18 1.91 7.24 3.75-4.22 2.89-8.3 5.97-12.62 8.71.62-3.21 1.39-6.41 1.55-9.69 1.43-.63 2.95-1.42 3.83-2.77z" fill="#cf1b2b"/><path d="m82.29 20.91c1.48 1.83 1.67 4.65.13 6.51-.49-2.14-.3-4.35-.13-6.51z" fill="#cf1b2b"/><path d="m.58 27.93c.78-2.1 1.87-4.09 3.31-5.82 11.42 7.99 22.84 15.96 34.24 23.98-4.76-.61-10.41 1.61-14.43-1.78-7.36-5.26-14.84-10.36-22.2-15.61-.23-.19-.69-.57-.92-.77z" fill="#cf1b2b"/><path d="m37.02 83.07c2.57-2.06 6.07-.92 9.08-1.16.01.77.01 2.32.01 3.1-11.75 8.3-23.62 16.43-35.31 24.82-2.48-.72-4.74-2.01-6.68-3.7 10.96-7.7 21.95-15.36 32.9-23.06z" fill="#cf1b2b"/><path d="m89.87 81.9c4.75.63 10.4-1.61 14.42 1.78 7.29 5.33 14.94 10.18 22.06 15.74.21.21.64.64.85.85-.6 2.08-1.72 3.96-3.09 5.62-11.42-7.99-22.85-15.96-34.24-23.99z" fill="#cf1b2b"/><path d="m127.52 28.48.48.44v4.1c-1.34-1.1-1.74-3.21-.48-4.54z" fill="#ffcc4d"/><path d="m93.47 30.63c3.41 1.15 6.77 3.01 8.69 6.18 2.42 3.58 2.15 8.07 3.03 12.12.57 2.73 4.1 4.01 6.47 2.75 2.65-.92 3.28-3.9 4.39-6.13 1.94 3.81 2.54 8.08 3.15 12.26-5.98 6.28-14.56 9.94-23.23 9.95-8.64-.04-17.22-3.67-23.17-9.97.67-6.29 2.26-12.82 6.98-17.36.95 2.61 1.13 6.43 4.32 7.36 4.13.96 8.46-2.04 9.83-5.9 1.36-3.68.24-7.58-.46-11.26z" fill="#ffcc4d"/></svg>

<?xml version="1.0" encoding="UTF-8" ?>
<!DOCTYPE svg PUBLIC "-//W3C//DTD SVG 1.1//EN" "http://www.w3.org/Graphics/SVG/1.1/DTD/svg11.dtd">
<svg width="128pt" height="128pt" viewBox="0 0 128 128" version="1.1" xmlns="http://www.w3.org/2000/svg">
<g id="#f4900cff">
<path fill="#f4900c" opacity="1.00" d=" M 99.76 0.00 L 99.92 0.00 C 106.93 3.43 112.70 9.99 112.93 18.10 C 112.89 18.80 112.83 20.20 112.80 20.90 C 112.64 24.18 111.87 27.38 111.25 30.59 C 110.89 33.06 111.16 36.02 113.53 37.43 C 116.51 38.65 120.39 38.19 122.37 35.42 C 124.58 32.43 126.20 28.67 126.19 24.92 C 126.71 26.08 127.12 27.28 127.52 28.48 C 126.26 29.81 126.66 31.92 128.00 33.02 L 128.00 37.66 C 127.87 40.37 127.43 43.07 126.45 45.60 C 125.20 48.35 123.86 51.05 122.34 53.66 C 121.41 55.12 120.36 56.52 119.20 57.81 C 118.59 53.63 117.99 49.36 116.05 45.55 C 114.94 47.78 114.31 50.76 111.66 51.68 C 109.29 52.94 105.76 51.66 105.19 48.93 C 104.31 44.88 104.58 40.39 102.16 36.81 C 100.24 33.64 96.88 31.78 93.47 30.63 C 94.17 34.31 95.29 38.21 93.93 41.89 C 92.56 45.75 88.23 48.75 84.10 47.79 C 80.91 46.86 80.73 43.04 79.78 40.43 C 75.06 44.97 73.47 51.50 72.80 57.79 C 62.56 47.43 60.91 29.78 69.29 17.82 C 69.84 17.08 70.93 15.60 71.47 14.86 L 70.96 17.81 C 70.33 22.18 70.41 27.37 74.28 30.31 C 77.28 31.55 80.79 30.15 82.42 27.42 C 83.96 25.56 83.77 22.74 82.29 20.91 C 81.93 19.87 81.60 18.83 81.28 17.79 C 80.09 12.57 82.25 7.09 86.27 3.68 C 85.83 7.15 85.82 11.02 88.12 13.89 C 90.87 17.73 97.45 18.30 100.23 14.19 C 103.32 9.96 101.85 4.33 99.76 0.00 Z" />
</g>
<g id="#eeeeeeff">
<path fill="#eeeeee" opacity="1.00" d=" M 3.89 22.11 C 7.29 18.63 12.22 17.37 16.97 17.79 C 26.63 24.66 36.39 31.42 46.10 38.23 C 46.11 31.42 46.10 24.61 46.10 17.80 C 48.61 17.80 51.12 17.80 53.63 17.80 C 53.61 29.74 53.65 41.68 53.61 53.61 C 35.74 53.66 17.87 53.60 0.00 53.64 L 0.00 46.11 C 6.51 46.11 13.03 46.10 19.54 46.11 C 13.03 41.55 6.55 36.96 0.00 32.47 L 0.00 30.84 C 0.14 30.14 0.42 28.73 0.56 28.03 L 1.50 28.70 C 8.86 33.95 16.34 39.05 23.70 44.31 C 27.72 47.70 33.37 45.48 38.13 46.09 C 26.73 38.07 15.31 30.10 3.89 22.11 Z" />
<path fill="#eeeeee" opacity="1.00" d=" M 74.37 17.81 C 76.67 17.80 78.98 17.80 81.28 17.79 C 81.60 18.83 81.93 19.87 82.29 20.91 C 82.12 23.07 81.93 25.28 82.42 27.42 C 80.79 30.15 77.28 31.55 74.28 30.31 C 74.43 26.15 74.37 21.98 74.37 17.81 Z" />
<path fill="#eeeeee" opacity="1.00" d=" M 112.93 18.10 C 113.85 18.11 115.70 18.12 116.63 18.13 C 115.75 19.48 114.23 20.27 112.80 20.90 C 112.83 20.20 112.89 18.80 112.93 18.10 Z" />
<path fill="#eeeeee" opacity="1.00" d=" M 123.87 21.88 C 124.70 22.85 125.49 23.85 126.19 24.92 C 126.20 28.67 124.58 32.43 122.37 35.42 C 120.39 38.19 116.51 38.65 113.53 37.43 C 111.16 36.02 110.89 33.06 111.25 30.59 C 115.57 27.85 119.65 24.77 123.87 21.88 Z" />
<path fill="#eeeeee" opacity="1.00" d=" M 126.45 45.60 C 126.83 45.79 127.61 46.17 128.00 46.35 L 128.00 53.61 C 126.11 53.62 124.23 53.64 122.34 53.66 C 123.86 51.05 125.20 48.35 126.45 45.60 Z" />
<path fill="#eeeeee" opacity="1.00" d=" M 0.00 74.38 C 17.87 74.38 35.74 74.36 53.61 74.39 C 53.65 86.32 53.61 98.26 53.63 110.20 C 51.12 110.20 48.61 110.20 46.10 110.20 C 46.10 103.39 46.11 96.58 46.10 89.77 C 36.38 96.58 26.63 103.34 16.96 110.22 C 14.90 110.23 12.83 110.14 10.80 109.83 C 22.49 101.44 34.36 93.31 46.11 85.01 C 46.11 84.23 46.11 82.68 46.10 81.91 C 43.09 82.15 39.59 81.01 37.02 83.07 C 26.07 90.77 15.08 98.43 4.12 106.13 C 1.94 103.73 0.48 100.74 0.00 97.53 L 0.00 95.63 C 6.48 90.98 13.05 86.48 19.57 81.88 C 13.04 81.91 6.52 81.88 0.00 81.90 L 0.00 74.38 Z" />
<path fill="#eeeeee" opacity="1.00" d=" M 74.39 74.39 C 92.26 74.35 110.13 74.40 128.00 74.36 L 128.00 81.89 C 121.48 81.89 114.96 81.90 108.44 81.88 C 114.95 86.46 121.48 91.01 128.00 95.57 L 128.00 98.42 C 127.59 98.67 126.76 99.17 126.35 99.42 C 119.23 93.86 111.58 89.01 104.29 83.68 C 100.27 80.29 94.62 82.53 89.87 81.90 C 101.26 89.93 112.69 97.90 124.11 105.89 C 120.70 109.37 115.78 110.64 111.03 110.20 C 101.36 103.34 91.62 96.58 81.90 89.78 C 81.89 96.59 81.90 103.39 81.90 110.20 C 79.39 110.20 76.88 110.20 74.37 110.20 C 74.39 98.26 74.35 86.32 74.39 74.39 Z" />
</g>
<g id="#00247dff">
<path fill="#00247d" opacity="1.00" d=" M 16.97 17.79 C 26.68 17.81 36.39 17.79 46.10 17.80 C 46.10 24.61 46.11 31.42 46.10 38.23 C 36.39 31.42 26.63 24.66 16.97 17.79 Z" />
<path fill="#00247d" opacity="1.00" d=" M 0.00 32.47 C 6.55 36.96 13.03 41.55 19.54 46.11 C 13.03 46.10 6.51 46.11 0.00 46.11 L 0.00 32.47 Z" />
<path fill="#00247d" opacity="1.00" d=" M 126.45 45.60 C 127.43 43.07 127.87 40.37 128.00 37.66 L 128.00 46.35 C 127.61 46.17 126.83 45.79 126.45 45.60 Z" />
<path fill="#00247d" opacity="1.00" d=" M 0.00 81.90 C 6.52 81.88 13.04 81.91 19.57 81.88 C 13.05 86.48 6.48 90.98 0.00 95.63 L 0.00 81.90 Z" />
<path fill="#00247d" opacity="1.00" d=" M 108.44 81.88 C 114.96 81.90 121.48 81.89 128.00 81.89 L 128.00 95.57 C 121.48 91.01 114.95 86.46 108.44 81.88 Z" />
<path fill="#00247d" opacity="1.00" d=" M 16.96 110.22 C 26.63 103.34 36.38 96.58 46.10 89.77 C 46.11 96.58 46.10 103.39 46.10 110.20 C 36.39 110.21 26.67 110.18 16.96 110.22 Z" />
<path fill="#00247d" opacity="1.00" d=" M 81.90 89.78 C 91.62 96.58 101.36 103.34 111.03 110.20 C 101.32 110.19 91.61 110.20 81.90 110.20 C 81.90 103.39 81.89 96.59 81.90 89.78 Z" />
</g>
<g id="#cf1b2bff">
<path fill="#cf1b2b" opacity="1.00" d=" M 53.63 17.80 C 58.85 17.81 64.07 17.78 69.29 17.82 C 60.91 29.78 62.56 47.43 72.80 57.79 C 78.75 64.09 87.33 67.72 95.97 67.76 C 104.64 67.75 113.22 64.09 119.20 57.81 C 120.36 56.52 121.41 55.12 122.34 53.66 C 124.23 53.64 126.11 53.62 128.00 53.61 L 128.00 74.36 C 110.13 74.40 92.26 74.35 74.39 74.39 C 74.35 86.32 74.39 98.26 74.37 110.20 C 67.46 110.20 60.54 110.20 53.63 110.20 C 53.61 98.26 53.65 86.32 53.61 74.39 C 35.74 74.36 17.87 74.38 0.00 74.38 L 0.00 53.64 C 17.87 53.60 35.74 53.66 53.61 53.61 C 53.65 41.68 53.61 29.74 53.63 17.80 Z" />
<path fill="#cf1b2b" opacity="1.00" d=" M 70.96 17.81 C 71.81 17.81 73.51 17.81 74.37 17.81 C 74.37 21.98 74.43 26.15 74.28 30.31 C 70.41 27.37 70.33 22.18 70.96 17.81 Z" />
<path fill="#cf1b2b" opacity="1.00" d=" M 116.63 18.13 C 119.35 18.65 121.81 20.04 123.87 21.88 C 119.65 24.77 115.57 27.85 111.25 30.59 C 111.87 27.38 112.64 24.18 112.80 20.90 C 114.23 20.27 115.75 19.48 116.63 18.13 Z" />
<path fill="#cf1b2b" opacity="1.00" d=" M 82.29 20.91 C 83.77 22.74 83.96 25.56 82.42 27.42 C 81.93 25.28 82.12 23.07 82.29 20.91 Z" />
<path fill="#cf1b2b" opacity="1.00" d=" M 0.58 27.93 C 1.36 25.83 2.45 23.84 3.89 22.11 C 15.31 30.10 26.73 38.07 38.13 46.09 C 33.37 45.48 27.72 47.70 23.70 44.31 C 16.34 39.05 8.86 33.95 1.50 28.70 C 1.27 28.51 0.81 28.13 0.58 27.93 Z" />
<path fill="#cf1b2b" opacity="1.00" d=" M 37.02 83.07 C 39.59 81.01 43.09 82.15 46.10 81.91 C 46.11 82.68 46.11 84.23 46.11 85.01 C 34.36 93.31 22.49 101.44 10.80 109.83 C 8.32 109.11 6.06 107.82 4.12 106.13 C 15.08 98.43 26.07 90.77 37.02 83.07 Z" />
<path fill="#cf1b2b" opacity="1.00" d=" M 89.87 81.90 C 94.62 82.53 100.27 80.29 104.29 83.68 C 111.58 89.01 119.23 93.86 126.35 99.42 C 126.56 99.63 126.99 100.06 127.20 100.27 C 126.60 102.35 125.48 104.23 124.11 105.89 C 112.69 97.90 101.26 89.93 89.87 81.90 Z" />
</g>
<g id="#ffcc4dff">
<path fill="#ffcc4d" opacity="1.00" d=" M 127.52 28.48 L 128.00 28.92 L 128.00 33.02 C 126.66 31.92 126.26 29.81 127.52 28.48 Z" />
<path fill="#ffcc4d" opacity="1.00" d=" M 93.47 30.63 C 96.88 31.78 100.24 33.64 102.16 36.81 C 104.58 40.39 104.31 44.88 105.19 48.93 C 105.76 51.66 109.29 52.94 111.66 51.68 C 114.31 50.76 114.94 47.78 116.05 45.55 C 117.99 49.36 118.59 53.63 119.20 57.81 C 113.22 64.09 104.64 67.75 95.97 67.76 C 87.33 67.72 78.75 64.09 72.80 57.79 C 73.47 51.50 75.06 44.97 79.78 40.43 C 80.73 43.04 80.91 46.86 84.10 47.79 C 88.23 48.75 92.56 45.75 93.93 41.89 C 95.29 38.21 94.17 34.31 93.47 30.63 Z" />
</g>
</svg>
